Numix/16/emotes/face-angel.svg

<?xml version="1.0" encoding="UTF-8" standalone="no"?>
<svg
   xmlns:dc="http://purl.org/dc/elements/1.1/"
   xmlns:cc="http://creativecommons.org/ns#"
   xmlns:rdf="http://www.w3.org/1999/02/22-rdf-syntax-ns#"
   xmlns:svg="http://www.w3.org/2000/svg"
   xmlns="http://www.w3.org/2000/svg"
   xmlns:sodipodi="http://sodipodi.sourceforge.net/DTD/sodipodi-0.dtd"
   xmlns:inkscape="http://www.inkscape.org/namespaces/inkscape"
   width="16px"
   height="16px"
   viewBox="0 0 12 12"
   version="1.1"
   id="svg2941"
   inkscape:version="0.91 r"
   sodipodi:docname="face-angel.svg">
  <metadata
     id="metadata2958">
    <rdf:RDF>
      <cc:Work
         rdf:about="">
        <dc:format>image/svg+xml</dc:format>
        <dc:type
           rdf:resource="http://purl.org/dc/dcmitype/StillImage" />
      </cc:Work>
    </rdf:RDF>
  </metadata>
  <defs
     id="defs2956" />
  <sodipodi:namedview
     pagecolor="#ffffff"
     bordercolor="#666666"
     borderopacity="1"
     objecttolerance="10"
     gridtolerance="10"
     guidetolerance="10"
     inkscape:pageopacity="0"
     inkscape:pageshadow="2"
     inkscape:window-width="640"
     inkscape:window-height="480"
     id="namedview2954" />
  <g
     id="surface1">
    <path
       style=" stroke:none;fill-rule:nonzero;fill:rgb(100%,85.098039%,36.078431%);fill-opacity:1;"
       d="M 11.25 6 C 11.25 8.484375 8.898438 10.5 6 10.5 C 3.101562 10.5 0.75 8.484375 0.75 6 C 0.75 3.515625 3.097656 1.5 6 1.5 C 8.902344 1.5 11.25 3.515625 11.25 6 Z M 11.25 6 "
       id="path2944" />
    <path
       style=" stroke:none;fill-rule:nonzero;fill:rgb(61.960784%,56.078431%,34.901961%);fill-opacity:1;"
       d="M 8.554688 1.769531 C 8.984375 1.96875 9.386719 2.222656 9.75 2.519531 C 10.328125 2.582031 10.644531 2.65625 10.644531 2.734375 C 10.644531 2.933594 8.566406 3.097656 6 3.097656 C 3.433594 3.097656 1.355469 2.933594 1.355469 2.734375 C 1.355469 2.65625 1.667969 2.585938 2.238281 2.519531 C 2.605469 2.222656 3.007812 1.96875 3.4375 1.769531 C 1.621094 1.957031 0.484375 2.332031 0.484375 2.734375 C 0.484375 3.335938 2.953125 3.824219 6 3.824219 C 9.046875 3.824219 11.515625 3.335938 11.515625 2.734375 C 11.515625 2.328125 10.371094 1.957031 8.554688 1.769531 Z M 8.554688 1.769531 "
       id="path2946" />
    <path
       style=" stroke:none;fill-rule:nonzero;fill:rgb(38.823529%,38.823529%,38.823529%);fill-opacity:1;"
       d="M 4.078125 4.5 C 3.636719 4.5 3.28125 4.855469 3.28125 5.296875 C 3.28125 5.375 3.292969 5.457031 3.320312 5.535156 C 3.421875 5.203125 3.730469 4.976562 4.078125 4.976562 C 4.425781 4.976562 4.734375 5.203125 4.835938 5.535156 C 4.863281 5.457031 4.875 5.378906 4.875 5.296875 C 4.875 4.855469 4.519531 4.5 4.078125 4.5 Z M 4.078125 4.5 "
       id="path2948" />
    <path
       style=" stroke:none;fill-rule:nonzero;fill:rgb(38.823529%,38.823529%,38.823529%);fill-opacity:1;"
       d="M 3.75 7.125 C 3.9375 8.066406 4.886719 8.71875 6 8.71875 C 7.117188 8.71875 8.066406 8.066406 8.25 7.125 L 7.875 7.125 C 7.738281 7.6875 6.972656 8.066406 6 8.066406 C 5.03125 8.066406 4.261719 7.6875 4.125 7.125 Z M 3.75 7.125 "
       id="path2950" />
    <path
       style=" stroke:none;fill-rule:nonzero;fill:rgb(38.823529%,38.823529%,38.823529%);fill-opacity:1;"
       d="M 7.921875 4.5 C 7.480469 4.5 7.125 4.855469 7.125 5.296875 C 7.125 5.375 7.136719 5.457031 7.164062 5.535156 C 7.265625 5.203125 7.574219 4.976562 7.921875 4.976562 C 8.269531 4.976562 8.578125 5.203125 8.679688 5.535156 C 8.707031 5.457031 8.71875 5.378906 8.71875 5.296875 C 8.71875 4.855469 8.363281 4.5 7.921875 4.5 Z M 7.921875 4.5 "
       id="path2952" />
  </g>
</svg>

<svg xmlns="http://www.w3.org/2000/svg" width="16" height="16" viewBox="0 0 12 12">
 <g>
  <path d="m 11.25 6 c 0 2.484 -2.352 4.5 -5.25 4.5 c -2.898 0 -5.25 -2.02 -5.25 -4.5 c 0 -2.484 2.348 -4.5 5.25 -4.5 c 2.902 0 5.25 2.02 5.25 4.5 m 0 0" style="fill:#ffd85b;fill-opacity:1;stroke:none;fill-rule:nonzero"/>
  <path d="m 8.555 1.77 c 0.43 0.199 0.832 0.453 1.195 0.75 c 0.578 0.063 0.895 0.137 0.895 0.215 c 0 0.199 -2.078 0.363 -4.645 0.363 c -2.566 0 -4.645 -0.164 -4.645 -0.363 c 0 -0.078 0.313 -0.148 0.883 -0.215 c 0.367 -0.297 0.77 -0.551 1.199 -0.75 c -1.816 0.188 -2.953 0.563 -2.953 0.965 c 0 0.602 2.469 1.09 5.516 1.09 c 3.047 0 5.516 -0.488 5.516 -1.09 c 0 -0.406 -1.145 -0.777 -2.961 -0.965 m 0 0" style="fill:#9d8e59;fill-opacity:1;stroke:none;fill-rule:nonzero"/>
  <path d="m 4.078 4.5 c -0.441 0 -0.797 0.355 -0.797 0.797 c 0 0.078 0.012 0.16 0.039 0.238 c 0.102 -0.332 0.41 -0.559 0.758 -0.559 c 0.348 0 0.656 0.227 0.758 0.559 c 0.027 -0.078 0.039 -0.156 0.039 -0.238 c 0 -0.441 -0.355 -0.797 -0.797 -0.797 m 0 0" style="fill:#626262;fill-opacity:1;stroke:none;fill-rule:nonzero"/>
  <path d="m 3.75 7.125 c 0.188 0.941 1.137 1.594 2.25 1.594 c 1.117 0 2.066 -0.652 2.25 -1.594 l -0.375 0 c -0.137 0.563 -0.902 0.941 -1.875 0.941 c -0.969 0 -1.738 -0.379 -1.875 -0.941 m -0.375 0" style="fill:#626262;fill-opacity:1;stroke:none;fill-rule:nonzero"/>
  <path d="m 7.922 4.5 c -0.441 0 -0.797 0.355 -0.797 0.797 c 0 0.078 0.012 0.16 0.039 0.238 c 0.102 -0.332 0.41 -0.559 0.758 -0.559 c 0.348 0 0.656 0.227 0.758 0.559 c 0.027 -0.078 0.039 -0.156 0.039 -0.238 c 0 -0.441 -0.355 -0.797 -0.797 -0.797 m 0 0" style="fill:#626262;fill-opacity:1;stroke:none;fill-rule:nonzero"/>
 </g>
</svg>
